public/svg/truck.svg

<svg enable-background="new 0 0 512 512" viewBox="0 0 512 512" xmlns="http://www.w3.org/2000/svg" xmlns:xlink="http://www.w3.org/1999/xlink"><linearGradient id="a"><stop offset="0" stop-color="#4cb5ea"/><stop offset="1" stop-color="#5a6cdd"/></linearGradient><linearGradient id="b" gradientUnits="userSpaceOnUse" x1="102.4813" x2="125.3284" xlink:href="#a" y1="7.0329" y2="519.8226"/><linearGradient id="c" gradientUnits="userSpaceOnUse" x1="392.0395" x2="414.8866" xlink:href="#a" y1="-5.8682" y2="506.9215"/><linearGradient id="d" gradientUnits="userSpaceOnUse" x1="402.6426" x2="425.4897" xlink:href="#a" y1="-6.3406" y2="506.4491"/><linearGradient id="e" gradientUnits="userSpaceOnUse" x1="413.812" x2="436.6591" xlink:href="#a" y1="-6.8382" y2="505.9514"/><linearGradient id="f" gradientUnits="userSpaceOnUse" x1="159.6505" x2="182.4976" xlink:href="#a" y1="4.4858" y2="517.2755"/><linearGradient id="g" gradientUnits="userSpaceOnUse" x1="18.7992" x2="41.6463" xlink:href="#a" y1="10.7613" y2="523.551"/><linearGradient id="h" gradientUnits="userSpaceOnUse" x1="236.0036" x2="258.8506" xlink:href="#a" y1="1.0839" y2="513.8736"/><linearGradient id="i" gradientUnits="userSpaceOnUse" x1="470.2396" x2="493.0867" xlink:href="#a" y1="-9.3523" y2="503.4373"/><linearGradient id="j" gradientUnits="userSpaceOnUse" x1="177.0135" x2="199.8605" xlink:href="#a" y1="3.7122" y2="516.5019"/><linearGradient id="k" gradientUnits="userSpaceOnUse" x1="102.4808" x2="125.3279" xlink:href="#a" y1="7.0329" y2="519.8226"/><linearGradient id="l" gradientUnits="userSpaceOnUse" x1="392.04" x2="414.8871" xlink:href="#a" y1="-5.8682" y2="506.9215"/><linearGradient id="m" gradientUnits="userSpaceOnUse" x1="90.5916" x2="113.4386" xlink:href="#a" y1="7.5627" y2="520.3524"/><linearGradient id="n" gradientUnits="userSpaceOnUse" x1="5.4276" x2="28.2747" xlink:href="#a" y1="11.3571" y2="524.1468"/><path d="m119.5 337.1c-28.2 0-51.2 23-51.2 51.2s23 51.2 51.2 51.2 51.2-23 51.2-51.2c0-28.3-23-51.2-51.2-51.2zm0 85.3c-18.8 0-34.1-15.3-34.1-34.1s15.3-34.1 34.1-34.1 34.1 15.3 34.1 34.1-15.3 34.1-34.1 34.1z" fill="url(#b)"/><path d="m409.6 337.1c-28.2 0-51.2 23-51.2 51.2s23 51.2 51.2 51.2 51.2-23 51.2-51.2c0-28.3-23-51.2-51.2-51.2zm0 85.3c-18.8 0-34.1-15.3-34.1-34.1s15.3-34.1 34.1-34.1 34.1 15.3 34.1 34.1-15.3 34.1-34.1 34.1z" fill="url(#c)"/><path d="m510.6 289.8-76.8-119.5c-1.6-2.4-4.3-3.9-7.2-3.9h-93.9c-4.7 0-8.5 3.8-8.5 8.5v213.3c0 4.7 3.8 8.5 8.5 8.5h34.1v-17.1h-25.6v-196.1h80.8l72.9 113.4v82.8h-42.7v17.1h51.2c4.7 0 8.5-3.8 8.5-8.5v-93.9c.1-1.6-.4-3.2-1.3-4.6z" fill="url(#d)"/><path d="m375.5 277.3v-58.1c0-.9.7-1.7 1.7-1.7h65c.9 0 1.7-.7 1.7-1.7v-15.4h-76.8c-4.7 0-8.5 3.8-8.5 8.5v76.8c0 4.7 3.8 8.5 8.5 8.5h128v-17.1z" fill="url(#e)"/><path d="m332.8 106.7h-324.3c-4.7 0-8.5 3.8-8.5 8.5v273.1c0 4.7 3.8 8.5 8.5 8.5h68.3v-17.1h-58.1c-.9 0-1.6-.7-1.6-1.6v-252.8c0-.9.7-1.6 1.6-1.6h305.6v254.4c0 .9-.7 1.6-1.6 1.6h-159c-.9 0-1.6.7-1.6 1.6v15.5h170.7c4.7 0 8.5-3.8 8.5-8.5v-273.1c0-4.7-3.8-8.5-8.5-8.5z" fill="url(#f)"/><path d="m8.5 345.6h49.6c.9 0 1.6.7 1.6 1.6v15.5h-51.2z" fill="url(#g)"/><path d="m180.8 345.6h141.8c.9 0 1.6.7 1.6 1.6v13.8c0 .9-.7 1.6-1.6 1.6h-141.8c-.9 0-1.6-.7-1.6-1.6v-13.8c0-.9.7-1.6 1.6-1.6z" fill="url(#h)"/><path d="m470.9 345.6h32.5v17.1h-32.5c-.9 0-1.6-.7-1.6-1.6v-13.8c0-1 .8-1.7 1.6-1.7z" fill="url(#i)"/><path d="m35.7 140.8h297.1v17.1h-297.1c-.9 0-1.6-.7-1.6-1.6v-13.8c0-1 .8-1.7 1.6-1.7z" fill="url(#j)"/><path d="m112.5 379.7h13.8c.9 0 1.6.7 1.6 1.6v13.8c0 .9-.7 1.6-1.6 1.6h-13.8c-.9 0-1.6-.7-1.6-1.6v-13.8c0-.8.8-1.6 1.6-1.6z" fill="url(#k)"/><path d="m402.7 379.7h13.8c.9 0 1.6.7 1.6 1.6v13.8c0 .9-.7 1.6-1.6 1.6h-13.8c-.9 0-1.6-.7-1.6-1.6v-13.8c0-.8.7-1.6 1.6-1.6z" fill="url(#l)"/><path d="m35.7 72.5h116.3c.9 0 1.6.7 1.6 1.6v13.9c0 .9-.7 1.6-1.6 1.6h-116.3c-.9 0-1.6-.7-1.6-1.6v-13.9c0-.8.8-1.6 1.6-1.6z" fill="url(#m)"/><path d="m1.6 72.5h13.8c.9 0 1.6.7 1.6 1.6v13.9c0 .9-.7 1.6-1.6 1.6h-13.8c-.9 0-1.6-.7-1.6-1.6v-13.9c0-.8.7-1.6 1.6-1.6z" fill="url(#n)"/></svg>

<?xml version="1.0" encoding="utf-8"?>
<!-- Generator: Adobe Illustrator 24.0.3, SVG Export Plug-In . SVG Version: 6.00 Build 0)  -->
<svg version="1.1" id="Capa_1" xmlns="http://www.w3.org/2000/svg" xmlns:xlink="http://www.w3.org/1999/xlink" x="0px" y="0px"
	 viewBox="0 0 512 512" style="enable-background:new 0 0 512 512;" xml:space="preserve">
<style type="text/css">
	.st0{fill:url(#SVGID_1_);}
	.st1{fill:url(#SVGID_2_);}
	.st2{fill:url(#SVGID_3_);}
	.st3{fill:url(#SVGID_4_);}
	.st4{fill:url(#SVGID_5_);}
	.st5{fill:url(#SVGID_6_);}
	.st6{fill:url(#SVGID_7_);}
	.st7{fill:url(#SVGID_8_);}
	.st8{fill:url(#SVGID_9_);}
	.st9{fill:url(#SVGID_10_);}
	.st10{fill:url(#SVGID_11_);}
	.st11{fill:url(#SVGID_12_);}
	.st12{fill:url(#SVGID_13_);}
</style>
<g>
	<g>
		<linearGradient id="SVGID_1_" gradientUnits="userSpaceOnUse" x1="102.4813" y1="7.0329" x2="125.3284" y2="519.8226">
			<stop  offset="0" style="stop-color:#4CB5EA"/>
			<stop  offset="1" style="stop-color:#5A6CDD"/>
		</linearGradient>
		<path class="st0" d="M119.5,337.1c-28.2,0-51.2,23-51.2,51.2s23,51.2,51.2,51.2s51.2-23,51.2-51.2
			C170.7,360,147.7,337.1,119.5,337.1z M119.5,422.4c-18.8,0-34.1-15.3-34.1-34.1c0-18.8,15.3-34.1,34.1-34.1s34.1,15.3,34.1,34.1
			C153.6,407.1,138.3,422.4,119.5,422.4z"/>
	</g>
</g>
<g>
	<g>
		<linearGradient id="SVGID_2_" gradientUnits="userSpaceOnUse" x1="392.0395" y1="-5.8682" x2="414.8866" y2="506.9215">
			<stop  offset="0" style="stop-color:#4CB5EA"/>
			<stop  offset="1" style="stop-color:#5A6CDD"/>
		</linearGradient>
		<path class="st1" d="M409.6,337.1c-28.2,0-51.2,23-51.2,51.2s23,51.2,51.2,51.2s51.2-23,51.2-51.2
			C460.8,360,437.8,337.1,409.6,337.1z M409.6,422.4c-18.8,0-34.1-15.3-34.1-34.1c0-18.8,15.3-34.1,34.1-34.1
			c18.8,0,34.1,15.3,34.1,34.1S428.4,422.4,409.6,422.4z"/>
	</g>
</g>
<g>
	<g>
		<linearGradient id="SVGID_3_" gradientUnits="userSpaceOnUse" x1="402.6426" y1="-6.3406" x2="425.4897" y2="506.4491">
			<stop  offset="0" style="stop-color:#4CB5EA"/>
			<stop  offset="1" style="stop-color:#5A6CDD"/>
		</linearGradient>
		<path class="st2" d="M510.6,289.8l-76.8-119.5c-1.6-2.4-4.3-3.9-7.2-3.9h-93.9c-4.7,0-8.5,3.8-8.5,8.5v213.3
			c0,4.7,3.8,8.5,8.5,8.5h34.1v-17.1h-25.6V183.5H422l72.9,113.4v82.8h-42.7v17.1h51.2c4.7,0,8.5-3.8,8.5-8.5v-93.9
			C512,292.8,511.5,291.2,510.6,289.8z"/>
	</g>
</g>
<g>
	<g>
		<linearGradient id="SVGID_4_" gradientUnits="userSpaceOnUse" x1="413.812" y1="-6.8382" x2="436.6591" y2="505.9514">
			<stop  offset="0" style="stop-color:#4CB5EA"/>
			<stop  offset="1" style="stop-color:#5A6CDD"/>
		</linearGradient>
		<path class="st3" d="M375.5,277.3v-58.1c0-0.9,0.7-1.7,1.7-1.7h65c0.9,0,1.7-0.7,1.7-1.7v-15.4h-76.8c-4.7,0-8.5,3.8-8.5,8.5v76.8
			c0,4.7,3.8,8.5,8.5,8.5h128v-17.1L375.5,277.3L375.5,277.3z"/>
	</g>
</g>
<g>
	<g>
		<linearGradient id="SVGID_5_" gradientUnits="userSpaceOnUse" x1="159.6505" y1="4.4858" x2="182.4976" y2="517.2755">
			<stop  offset="0" style="stop-color:#4CB5EA"/>
			<stop  offset="1" style="stop-color:#5A6CDD"/>
		</linearGradient>
		<path class="st4" d="M332.8,106.7H8.5c-4.7,0-8.5,3.8-8.5,8.5v273.1c0,4.7,3.8,8.5,8.5,8.5h68.3v-17.1H18.7
			c-0.9,0-1.6-0.7-1.6-1.6V125.3c0-0.9,0.7-1.6,1.6-1.6h305.6v254.4c0,0.9-0.7,1.6-1.6,1.6H163.7c-0.9,0-1.6,0.7-1.6,1.6v15.5h170.7
			c4.7,0,8.5-3.8,8.5-8.5V115.2C341.3,110.5,337.5,106.7,332.8,106.7z"/>
	</g>
</g>
<g>
	<g>
		<linearGradient id="SVGID_6_" gradientUnits="userSpaceOnUse" x1="18.7992" y1="10.7613" x2="41.6463" y2="523.551">
			<stop  offset="0" style="stop-color:#4CB5EA"/>
			<stop  offset="1" style="stop-color:#5A6CDD"/>
		</linearGradient>
		<path class="st5" d="M8.5,345.6h49.6c0.9,0,1.6,0.7,1.6,1.6v15.5H8.5V345.6z"/>
	</g>
</g>
<g>
	<g>
		<linearGradient id="SVGID_7_" gradientUnits="userSpaceOnUse" x1="236.0036" y1="1.0839" x2="258.8506" y2="513.8736">
			<stop  offset="0" style="stop-color:#4CB5EA"/>
			<stop  offset="1" style="stop-color:#5A6CDD"/>
		</linearGradient>
		<path class="st6" d="M180.8,345.6h141.8c0.9,0,1.6,0.7,1.6,1.6v13.8c0,0.9-0.7,1.6-1.6,1.6H180.8c-0.9,0-1.6-0.7-1.6-1.6v-13.8
			C179.2,346.3,179.9,345.6,180.8,345.6z"/>
	</g>
</g>
<g>
	<g>
		<linearGradient id="SVGID_8_" gradientUnits="userSpaceOnUse" x1="470.2396" y1="-9.3523" x2="493.0867" y2="503.4373">
			<stop  offset="0" style="stop-color:#4CB5EA"/>
			<stop  offset="1" style="stop-color:#5A6CDD"/>
		</linearGradient>
		<path class="st7" d="M470.9,345.6h32.5v17.1h-32.5c-0.9,0-1.6-0.7-1.6-1.6v-13.8C469.3,346.3,470.1,345.6,470.9,345.6z"/>
	</g>
</g>
<g>
	<g>
		<linearGradient id="SVGID_9_" gradientUnits="userSpaceOnUse" x1="177.0135" y1="3.7122" x2="199.8605" y2="516.5019">
			<stop  offset="0" style="stop-color:#4CB5EA"/>
			<stop  offset="1" style="stop-color:#5A6CDD"/>
		</linearGradient>
		<path class="st8" d="M35.7,140.8h297.1v17.1H35.7c-0.9,0-1.6-0.7-1.6-1.6v-13.8C34.1,141.5,34.9,140.8,35.7,140.8z"/>
	</g>
</g>
<g>
	<g>
		<linearGradient id="SVGID_10_" gradientUnits="userSpaceOnUse" x1="102.4808" y1="7.0329" x2="125.3279" y2="519.8226">
			<stop  offset="0" style="stop-color:#4CB5EA"/>
			<stop  offset="1" style="stop-color:#5A6CDD"/>
		</linearGradient>
		<path class="st9" d="M112.5,379.7h13.8c0.9,0,1.6,0.7,1.6,1.6v13.8c0,0.9-0.7,1.6-1.6,1.6h-13.8c-0.9,0-1.6-0.7-1.6-1.6v-13.8
			C110.9,380.5,111.7,379.7,112.5,379.7z"/>
	</g>
</g>
<g>
	<g>
		<linearGradient id="SVGID_11_" gradientUnits="userSpaceOnUse" x1="392.04" y1="-5.8682" x2="414.8871" y2="506.9215">
			<stop  offset="0" style="stop-color:#4CB5EA"/>
			<stop  offset="1" style="stop-color:#5A6CDD"/>
		</linearGradient>
		<path class="st10" d="M402.7,379.7h13.8c0.9,0,1.6,0.7,1.6,1.6v13.8c0,0.9-0.7,1.6-1.6,1.6h-13.8c-0.9,0-1.6-0.7-1.6-1.6v-13.8
			C401.1,380.5,401.8,379.7,402.7,379.7z"/>
	</g>
</g>
<g>
	<g>
		<linearGradient id="SVGID_12_" gradientUnits="userSpaceOnUse" x1="90.5916" y1="7.5627" x2="113.4386" y2="520.3524">
			<stop  offset="0" style="stop-color:#4CB5EA"/>
			<stop  offset="1" style="stop-color:#5A6CDD"/>
		</linearGradient>
		<path class="st11" d="M35.7,72.5H152c0.9,0,1.6,0.7,1.6,1.6V88c0,0.9-0.7,1.6-1.6,1.6H35.7c-0.9,0-1.6-0.7-1.6-1.6V74.1
			C34.1,73.3,34.9,72.5,35.7,72.5z"/>
	</g>
</g>
<g>
	<g>
		<linearGradient id="SVGID_13_" gradientUnits="userSpaceOnUse" x1="5.4276" y1="11.3571" x2="28.2747" y2="524.1468">
			<stop  offset="0" style="stop-color:#4CB5EA"/>
			<stop  offset="1" style="stop-color:#5A6CDD"/>
		</linearGradient>
		<path class="st12" d="M1.6,72.5h13.8c0.9,0,1.6,0.7,1.6,1.6V88c0,0.9-0.7,1.6-1.6,1.6H1.6C0.7,89.6,0,88.9,0,88V74.1
			C0,73.3,0.7,72.5,1.6,72.5z"/>
	</g>
</g>
</svg>
